X:1
T:B minor            Amos Pilsbury, 1799
T:Anonymous author. Not appearing elsewhere
T:Mount Calvary
T:Transcribed from  The United States Sacred Harmony, 1799.
%%score [ 1 2 3 4 ]
L:1/8
Q:1/4=60
M:3/4
K:D
V:1 treble nm="Tr." snm="Tr."
V:2 treble nm="C." snm="C."
V:3 treble-8 nm="T." snm="T."
V:4 bass nm="B." snm="B."
V:1
 B2 | (B>c d2) z d | f4 e2 | (d>c B2) c2 | d4 f2 | (d2 c2) B>c | (d>e f2) d2 | B2 ^A4 | %8
 !fermata!B4 F2 | B>AB>c d>e | f4 B2 | A4 F2 | B>AB>c d>e | f4 (3dcB | c2 A4 | B4 z B |: %16
[M:2/4] c>c c>B | A>[FA] [FA][FA] | B>c d>e | !fermata!f2 f>e | (dc/)B/ e>d | c>c c>A | %22
 (B>A Bc/d/ | c>B AB/c/ | dc/B/ c>)A |1 F>A B2- | B3 B :|2 F>A B2- | B4 |] %29
V:2
"^Be – hold,        be – hold      the  blee     –    ding God Ex–pi – ring      on           the   shameful tree;  He     spills _____ his     pre   –  cious" F2 | %1
 (F>E D2) !fermata!z F | A4 B2 | FGAG FE | F4 D2 | F4 FG | A4 F2 | G2 F4 | !fermata!F4 D>E | %9
 F>GFE FG | A4 E2 | %11
"^blood, and  spills  _____  it       too,  O ____  man,  for  thee!   The   mountains  nod  To see the God pierced with a cru  –  el  spear;  All" F4 D>E | %12
 F>GFE DC | B,4 FG/A/ | A>G F4 | F4 z F |:[M:2/4] F>F F>D | F>A AA | F>A B>B | !fermata!A2 A2 | %20
"^nature shakes; earth's  center quakes; The  slee         –         –         –         –         –         –    ping  saints ap –pear.         The     saints  ap –pear." F>F G>F | %21
 E>F F>F | (D>E GF/E/ | F4- | F2- F>)A |1 G/<F/F F2- | F3 F :|2 G/<F/F F2- | F4 |] %29
V:3
 B2 | (d>c B2) !fermata!z F | (F>B A2) B2 | (A>G F2) E2 | F4 F2 | (B2 c2) d<B | (A>G F2) f>e | %7
 d2 c4 | !fermata!B4 f2 | d>edc B2 | (c2 d2) e2 | f4 f2 | d>edc B2 | F4 de/f/ | e>d c4 | B4 z B |: %16
[M:2/4] A>A A>B | F>F F B/c/ | d>e f/e/d | !fermata!c2 d>e | f/e/d c d/c/ | B>F F>F | (B>c dc/B/ | %23
 A>B (3cAF | Bc/d/ e>)f |1 c>A B2- | B3 B :|2 c>A B2- | B4 |] %29
V:4
 B,2 | (F,>E, D,2) !fermata!z B,, | (B,,>C, D,2) E,2 | (F,>E, D,2) C,2 | B,,4 B,,2 | %5
 (D,2 C,2) D,>F, | (A,2 B,2) F,>E, | D,2 F,4 | !fermata!B,,4 B,2 | F,>G,F,E, D,>C, | %10
 (B,,>C, D,2) E,2 | F,4 B,2 | F,>G,F,E, D,>C, | B,,4 D,>E, | F,2 [F,,F,]4 | B,,4 z B,, |: %16
[M:2/4] F,>F, F,>D, | A,>A, A,B, | F,>E, D,/C,/B,, | !fermata!F,2 B,,2 | D,>F, A,>B, | %21
 B,>A, A,>F, | (D,>C, D,E,/F,/ | A,,4 | B,,C,/D,/ E,>)F, |1 F,>[F,,F,] B,,2- | B,,3 B,, :|2 %27
"^___________________________________________________________________\nEdited by B. C. Johnston, 2018\n   1. Grace sixteenth-notes converted to normal sixteenth-notes in measures 3, 8, and 21 of \nTenor\n, and measures 9 and 12 of \nCounter\n.\n   2. Measure 24, Bass: note changed from B to A." F,>[F,,F,] B,,2- | %28
 B,,4 |] %29

